lib/svg/issue-closed.svg

<svg xmlns="http://www.w3.org/2000/svg" width="16" height="16" viewBox="0 0 16 16"><path d="M7 10h2v2H7v-2zm2-6H7v5h2V4zm1.5 1.5l-1 1L12 9l4-4.5-1-1L12 7l-1.5-1.5zM8 13.7A5.71 5.71 0 0 1 2.3 8c0-3.14 2.56-5.7 5.7-5.7 1.83 0 3.45.88 4.5 2.2l.92-.92A6.947 6.947 0 0 0 8 1C4.14 1 1 4.14 1 8s3.14 7 7 7 7-3.14 7-7l-1.52 1.52c-.66 2.41-2.86 4.19-5.48 4.19v-.01z"/></svg>

<?xml version="1.0" encoding="UTF-8" standalone="no"?>
<svg width="16px" height="16px" viewBox="0 0 16 16" version="1.1" xmlns="http://www.w3.org/2000/svg" xmlns:xlink="http://www.w3.org/1999/xlink">
    <!-- Generator: Sketch 3.8.3 (29802) - http://www.bohemiancoding.com/sketch -->
    <title>issue-closed</title>
    <desc>Created with Sketch.</desc>
    <defs></defs>
    <g id="Octicons" stroke="none" stroke-width="1" fill="none" fill-rule="evenodd">
        <g id="issue-closed" fill="#000000">
            <path d="M7,10 L9,10 L9,12 L7,12 L7,10 L7,10 Z M9,4 L7,4 L7,9 L9,9 L9,4 L9,4 Z M10.5,5.5 L9.5,6.5 L12,9 L16,4.5 L15,3.5 L12,7 L10.5,5.5 L10.5,5.5 Z M8,13.7 C4.86,13.7 2.3,11.14 2.3,8 C2.3,4.86 4.86,2.3 8,2.3 C9.83,2.3 11.45,3.18 12.5,4.5 L13.42,3.58 C12.14,2 10.19,1 8,1 C4.14,1 1,4.14 1,8 C1,11.86 4.14,15 8,15 C11.86,15 15,11.86 15,8 L13.48,9.52 C12.82,11.93 10.62,13.71 8,13.71 L8,13.7 Z" id="Shape"></path>
        </g>
    </g>
</svg>
